images/item-area-icon1.svg

<svg width="32" height="40" viewBox="0 0 32 40" fill="none" xmlns="http://www.w3.org/2000/svg">
<path fill-rule="evenodd" clip-rule="evenodd" d="M1.66675 34.6666C1.66675 34.1143 2.11446 33.6666 2.66675 33.6666H29.3334C29.8857 33.6666 30.3334 34.1143 30.3334 34.6666C30.3334 35.2189 29.8857 35.6666 29.3334 35.6666H2.66675C2.11446 35.6666 1.66675 35.2189 1.66675 34.6666Z" fill="#2667FF"/>
<path fill-rule="evenodd" clip-rule="evenodd" d="M7.66675 19.6666V34.6666C7.66675 35.2189 7.21903 35.6666 6.66675 35.6666C6.11446 35.6666 5.66675 35.2189 5.66675 34.6666V18.9333C5.66675 18.5974 5.8002 18.2752 6.03775 18.0376C6.27529 17.8001 6.59748 17.6666 6.93341 17.6666H10.4001C10.736 17.6666 11.0582 17.8001 11.2958 18.0376C11.5333 18.2752 11.6667 18.5974 11.6667 18.9333V34.6666C11.6667 35.2189 11.219 35.6666 10.6667 35.6666C10.1145 35.6666 9.66675 35.2189 9.66675 34.6666V19.6666H7.66675Z" fill="#2667FF"/>
<path fill-rule="evenodd" clip-rule="evenodd" d="M15.6667 14.3333V34.6666C15.6667 35.2189 15.219 35.6666 14.6667 35.6666C14.1145 35.6666 13.6667 35.2189 13.6667 34.6666V13.6933C13.6667 13.4005 13.7534 13.0961 13.9426 12.8416C14.1316 12.5874 14.4712 12.3333 14.9334 12.3333H18.4001C18.8623 12.3333 19.2019 12.5874 19.3909 12.8416C19.5801 13.0961 19.6667 13.4005 19.6667 13.6933V34.6666C19.6667 35.2189 19.219 35.6666 18.6667 35.6666C18.1145 35.6666 17.6667 35.2189 17.6667 34.6666V14.3333H15.6667Z" fill="#2667FF"/>
<path fill-rule="evenodd" clip-rule="evenodd" d="M23.6667 23.6666V34.6666C23.6667 35.2189 23.219 35.6666 22.6667 35.6666C22.1145 35.6666 21.6667 35.2189 21.6667 34.6666V22.8666C21.6667 22.4201 21.915 22.1012 22.1407 21.9299C22.3725 21.7541 22.6541 21.6666 22.9334 21.6666H26.4001C26.6794 21.6666 26.961 21.7541 27.1928 21.9299C27.4185 22.1012 27.6667 22.4201 27.6667 22.8666V34.6666C27.6667 35.2189 27.219 35.6666 26.6667 35.6666C26.1145 35.6666 25.6667 35.2189 25.6667 34.6666V23.6666H23.6667Z" fill="#2667FF"/>
</svg>

<svg xmlns="http://www.w3.org/2000/svg" width="32" height="40" fill="none"><path fill="#2667FF" fill-rule="evenodd" d="M1.667 34.667a1 1 0 0 1 1-1h26.666a1 1 0 1 1 0 2H2.667a1 1 0 0 1-1-1Z" clip-rule="evenodd"/><path fill="#2667FF" fill-rule="evenodd" d="M7.667 19.667v15a1 1 0 1 1-2 0V18.933a1.267 1.267 0 0 1 1.266-1.266H10.4a1.267 1.267 0 0 1 1.267 1.266v15.734a1 1 0 1 1-2 0v-15h-2ZM15.667 14.333v20.334a1 1 0 1 1-2 0V13.693c0-.293.086-.597.276-.851.189-.255.528-.509.99-.509H18.4c.462 0 .802.254.99.509.19.254.277.558.277.851v20.974a1 1 0 1 1-2 0V14.333h-2ZM23.667 23.667v11a1 1 0 1 1-2 0v-11.8c0-.447.248-.766.474-.937.232-.176.513-.263.792-.263H26.4c.28 0 .561.087.793.263.226.171.474.49.474.937v11.8a1 1 0 1 1-2 0v-11h-2Z" clip-rule="evenodd"/></svg>
